static/logos/medium-glyph-color.svg

<svg width="50" height="29" viewBox="0 0 50 29" fill="none" xmlns="http://www.w3.org/2000/svg">
<g clip-path="url(#clip0_1_2042)">
<path d="M28.193 14.1935C28.193 22.0321 21.8817 28.3865 14.0967 28.3865C6.31178 28.3865 0 22.0307 0 14.1935C0 6.35632 6.3113 0 14.0967 0C21.8822 0 28.193 6.35488 28.193 14.1935ZM43.6571 14.1935C43.6571 21.5718 40.5014 27.5556 36.6087 27.5556C32.716 27.5556 29.5603 21.5718 29.5603 14.1935C29.5603 6.81513 32.7155 0.831418 36.6082 0.831418C40.501 0.831418 43.6566 6.81322 43.6566 14.1935H43.6571ZM49.9823 14.1935C49.9823 20.8027 48.8726 26.1638 47.5034 26.1638C46.1341 26.1638 45.0249 20.8041 45.0249 14.1935C45.0249 7.58285 46.1346 2.22318 47.5034 2.22318C48.8721 2.22318 49.9823 7.58237 49.9823 14.1935Z" fill="black"/>
</g>
<defs>
<clipPath id="clip0_1_2042">
<rect width="50" height="28.4004" fill="white"/>
</clipPath>
</defs>
</svg>

<svg xmlns="http://www.w3.org/2000/svg" width="110.345" height="64" fill="none" viewBox="0 0 50 29"><g clip-path="url(#a)"><path fill="#000" d="M28.193 14.194c0 7.838-6.311 14.193-14.096 14.193S0 22.03 0 14.193C0 6.357 6.311 0 14.097 0c7.785 0 14.096 6.355 14.096 14.194Zm15.464 0c0 7.378-3.156 13.362-7.048 13.362-3.893 0-7.049-5.984-7.049-13.363 0-7.378 3.155-13.362 7.048-13.362 3.893 0 7.049 5.982 7.049 13.363Zm6.325 0c0 6.609-1.11 11.97-2.479 11.97s-2.478-5.36-2.478-11.97c0-6.611 1.11-11.97 2.478-11.97 1.37 0 2.48 5.358 2.48 11.97Z"/></g><defs><clipPath id="a"><path fill="#fff" d="M0 0h50v28.4H0z"/></clipPath></defs></svg>
